X: 42740
T: White Crow
R: jig
M: 6/8
K: Dmajor
A|B EE{A}FEE|{c}BEE{A}E2 A|!slide!B EE{A}FEE|{c}AFd{a}dBA|
B EE{A}FEE|{c}BEE{A}EFE|DEFAAB|{c}AFDEzA|
B EE{A}FEE|{c}BEE{A}EFA|!slide!B EE{A}FEE|{c}AFd{a}dBA|
B EE{A}FEE|{c}BEE{A}EFE|DEFA2 B|{c}AFDE2A|
Be{a}ed{a}dB|{c}AFED2A|Be{a}ed{a}de|{a}fed{a}fed|
{c}Bee{a}fed|{c}BA{A}FDFE|DEFAB{c}A|{A}FEDEzA|
efeddB|{c}AFEDzA|efedde|{a}fed{a}fed|
Bee{a}fed|{c}BAFD2E|DEFABA|{A}FEDE:|

